assets/svg/wechat.svg

<?xml version="1.0" encoding="UTF-8"?>
<svg width="1000px" height="1000px" viewBox="0 0 1000 1000" version="1.1" xmlns="http://www.w3.org/2000/svg" xmlns:xlink="http://www.w3.org/1999/xlink">
    <!-- Generator: sketchtool 52.4 (67378) - http://www.bohemiancoding.com/sketch -->
    <title>wechat</title>
    <desc>Created with sketchtool.</desc>
    <g id="新版图标" stroke="none" stroke-width="1" fill="none" fill-rule="evenodd">
        <g id="wechat" fill="#323233">
            <g id="圆角-微信">
                <path d="M373.246544,606.702203 C323.368684,635.148672 315.971268,590.73242 315.971268,590.73242 L253.460099,441.504475 C229.407557,370.593164 274.276463,409.531463 274.276463,409.531463 C274.276463,409.531463 312.776814,439.3273 341.996048,457.483665 C371.198999,475.640029 404.486863,462.813197 404.486863,462.813197 L813.153147,269.844207 C737.75527,173.867685 613.206147,111.111111 472.20136,111.111111 C242.08259,111.111111 55.5555556,278.121235 55.5555556,484.150139 C55.5555556,602.65619 117.319757,708.130547 213.525857,776.492588 L196.176682,878.520883 C196.176682,878.520883 187.718858,908.307313 217.030699,894.491711 C237.004436,885.072267 287.924385,851.31717 318.235576,830.773543 C365.886782,847.761362 417.802009,857.194393 472.223749,857.194393 C702.323183,857.194393 888.888889,690.18427 888.888889,484.151184 C888.888889,424.474848 873.16798,368.117058 845.32056,318.092203 C715.118301,398.233775 412.274046,584.481012 373.246544,606.702203 L373.246544,606.702203 Z" id="Fill-1"></path>
            </g>
        </g>
    </g>
</svg>

<svg width="1000" height="1000" xmlns="http://www.w3.org/2000/svg"><path d="M373.247 606.702c-49.878 28.447-57.276-15.97-57.276-15.97l-62.51-149.228c-24.053-70.91 20.815-31.973 20.815-31.973s38.5 29.796 67.72 47.953c29.203 18.156 62.49 5.33 62.49 5.33l408.667-192.97c-75.398-95.976-199.947-158.733-340.952-158.733-230.118 0-416.645 167.01-416.645 373.04 0 118.505 61.764 223.98 157.97 292.342l-17.35 102.028s-8.457 29.786 20.855 15.97c19.973-9.419 70.893-43.174 101.205-63.717 47.65 16.987 99.566 26.42 153.988 26.42 230.1 0 416.665-167.01 416.665-373.043 0-59.676-15.721-116.034-43.568-166.059-130.203 80.142-433.047 266.389-472.074 288.61z" fill="#323233" fill-rule="evenodd"/></svg>
